gtk-icons/Papirus-GTK/16x16/mimetypes/application-vnd.kde.kphotoalbum-import.svg

<?xml version="1.0" encoding="UTF-8"?>
<svg xmlns="http://www.w3.org/2000/svg" xmlns:xlink="http://www.w3.org/1999/xlink" width="16px" height="16px" viewBox="0 0 16 16" version="1.1">
<defs>
<linearGradient id="linear0" gradientUnits="userSpaceOnUse" x1="160" y1="267" x2="160" y2="278" gradientTransform="matrix(0.35,0,0,0.35,-48,-83.35)">
<stop offset="0" style="stop-color:rgb(0%,0%,0%);stop-opacity:0.2;"/>
<stop offset="1" style="stop-color:rgb(0%,0%,0%);stop-opacity:0;"/>
</linearGradient>
</defs>
<g id="surface1">
<path style=" stroke:none;fill-rule:nonzero;fill:rgb(100%,46.27451%,41.568627%);fill-opacity:1;" d="M 1.75 2 C 1.335938 2 1 2.335938 1 2.75 L 1 11 L 15 11 L 15 2.75 C 15 2.335938 14.664062 2 14.25 2 Z M 14.9375 13.515625 C 14.902344 13.597656 14.859375 13.6875 14.796875 13.75 C 14.859375 13.679688 14.902344 13.605469 14.9375 13.515625 Z M 14.796875 13.75 C 14.671875 13.875 14.492188 13.953125 14.296875 13.953125 L 1.75 14 L 14.25 14 C 14.46875 14 14.660156 13.898438 14.796875 13.75 Z M 14.796875 13.75 "/>
<path style=" stroke:none;fill-rule:nonzero;fill:rgb(100%,100%,100%);fill-opacity:0.2;" d="M 1.75 2 C 1.335938 2 1 2.335938 1 2.75 L 1 3.25 C 1 2.835938 1.335938 2.5 1.75 2.5 L 14.25 2.5 C 14.664062 2.5 15 2.835938 15 3.25 L 15 2.75 C 15 2.335938 14.664062 2 14.25 2 Z M 1.75 2 "/>
<path style=" stroke:none;fill-rule:evenodd;fill:rgb(0%,0%,0%);fill-opacity:0.2;" d="M 11 5 C 12.105469 5 13 5.894531 13 7 C 13 8.105469 12.105469 9 11 9 C 9.894531 9 9 8.105469 9 7 C 9 5.894531 9.894531 5 11 5 Z M 11 5 "/>
<path style=" stroke:none;fill-rule:evenodd;fill:rgb(100%,99.607843%,89.411765%);fill-opacity:1;" d="M 11 4.5 C 12.105469 4.5 13 5.394531 13 6.5 C 13 7.605469 12.105469 8.5 11 8.5 C 9.894531 8.5 9 7.605469 9 6.5 C 9 5.394531 9.894531 4.5 11 4.5 Z M 11 4.5 "/>
<path style=" stroke:none;fill-rule:nonzero;fill:rgb(82.352941%,18.431373%,47.843137%);fill-opacity:1;" d="M 1 11 L 1 13.25 C 1 13.25 1 14.003906 1.75 14 L 14.300781 13.949219 C 14.6875 13.949219 15 13.636719 15 13.25 L 15 11 Z M 1 11 "/>
<path style=" stroke:none;fill-rule:nonzero;fill:url(#linear0);" d="M 1 11 L 4 14 L 14.25 14 C 15 14 15 13.25 15 13.25 L 15 11 Z M 1 11 "/>
<path style=" stroke:none;fill-rule:nonzero;fill:rgb(0%,0%,0%);fill-opacity:1;" d="M 1 11 L 1 10.601562 C 1 10.601562 2.007812 9.933594 2.292969 9.875 C 2.578125 9.816406 2.914062 9.863281 3.257812 9.929688 C 3.601562 9.996094 4.117188 10.082031 4.277344 10.085938 C 4.4375 10.09375 4.726562 10.074219 5.066406 10.054688 C 5.402344 10.03125 5.960938 10.015625 6.136719 10.015625 C 6.308594 10.015625 6.746094 10.039062 7.207031 10.070312 C 7.671875 10.097656 8.308594 10.144531 8.453125 10.15625 C 8.597656 10.171875 8.769531 10.195312 8.960938 10.222656 C 9.152344 10.25 9.488281 10.289062 9.605469 10.300781 C 9.722656 10.308594 9.996094 10.347656 10.316406 10.378906 C 10.632812 10.40625 11.140625 10.417969 11.289062 10.40625 C 11.433594 10.394531 11.742188 10.285156 12.085938 10.1875 C 12.429688 10.085938 12.808594 9.992188 13.09375 10.015625 C 13.382812 10.039062 15 10.601562 15 10.601562 L 15 11 Z M 1 11 "/>
<path style=" stroke:none;fill-rule:nonzero;fill:rgb(0%,0%,0%);fill-opacity:0.101961;" d="M 1.75 14 C 1.335938 14 1 13.664062 1 13.25 L 1 12.75 C 1 13.164062 1.335938 13.5 1.75 13.5 L 14.25 13.5 C 14.664062 13.5 15 13.164062 15 12.75 L 15 13.25 C 15 13.664062 14.664062 14 14.25 14 Z M 1.75 14 "/>
<path style=" stroke:none;fill-rule:nonzero;fill:rgb(0%,0%,0%);fill-opacity:0.301961;" d="M 1 12.75 L 1 13.25 C 1 13.664062 1.335938 14 1.75 14 L 14.25 14 C 14.664062 14 15 13.664062 15 13.25 L 15 12.75 C 15 13.164062 14.664062 13.5 14.25 13.5 L 1.75 13.5 C 1.335938 13.5 1 13.164062 1 12.75 Z M 1 12.75 "/>
</g>
</svg>

<?xml version="1.0" encoding="UTF-8" standalone="no"?>
<svg xmlns="http://www.w3.org/2000/svg" height="16px" width="16px" version="1.1" xmlns:xlink="http://www.w3.org/1999/xlink" viewBox="0 0 16 16">
 <defs>
  <linearGradient id="linear0" y2="278" gradientUnits="userSpaceOnUse" x2="160" gradientTransform="matrix(.35 0 0 .35 -48 -83.35)" y1="267" x1="160">
   <stop stop-opacity=".2" offset="0"/>
   <stop stop-opacity="0" offset="1"/>
  </linearGradient>
 </defs>
 <g id="surface1">
  <path fill="#ff7669" d="m1.75 2c-0.4141 0-0.75 0.3359-0.75 0.75v8.25h14v-8.25c0-0.4141-0.336-0.75-0.75-0.75zm13.188 11.516c-0.036 0.082-0.079 0.172-0.141 0.234 0.062-0.07 0.105-0.145 0.141-0.234zm-0.141 0.234c-0.125 0.125-0.305 0.203-0.5 0.203l-12.547 0.047h12.5c0.219 0 0.41-0.102 0.547-0.25z"/>
  <path fill="#fff" d="m1.75 2c-0.4141 0-0.75 0.3359-0.75 0.75v0.5c0-0.4141 0.3359-0.75 0.75-0.75h12.5c0.414 0 0.75 0.3359 0.75 0.75v-0.5c0-0.4141-0.336-0.75-0.75-0.75z" fill-opacity=".2"/>
  <path fill-rule="evenodd" d="m11 5c1.105 0 2 0.8945 2 2s-0.895 2-2 2c-1.1055 0-2-0.8945-2-2s0.8945-2 2-2z" fill-opacity=".2"/>
  <path fill-rule="evenodd" fill="#fffde4" d="m11 4.5c1.105 0 2 0.8945 2 2s-0.895 2-2 2c-1.1055 0-2-0.8945-2-2s0.8945-2 2-2z"/>
  <path fill="#d12f79" d="m1 11v2.25s0 0.754 0.75 0.75l12.551-0.051c0.387 0 0.699-0.312 0.699-0.699v-2.25z"/>
  <path d="m1 11l3 3h10.25c0.75 0 0.75-0.75 0.75-0.75v-2.25z" fill="url(#linear0)"/>
  <path d="m1 11v-0.398s1.0078-0.6684 1.293-0.727c0.2851-0.0586 0.6211-0.0117 0.9648 0.0547 0.3438 0.0664 0.8594 0.1523 1.0195 0.1563 0.1602 0.008 0.4493-0.012 0.7891-0.031 0.3359-0.024 0.8945-0.039 1.0703-0.039 0.1719 0 0.6094 0.023 1.0703 0.054 0.4649 0.028 1.1016 0.075 1.2461 0.086 0.1446 0.016 0.3164 0.039 0.5078 0.067 0.1914 0.027 0.5274 0.066 0.6446 0.078 0.1172 0.008 0.3906 0.047 0.7105 0.078 0.317 0.027 0.825 0.039 0.973 0.027 0.145-0.011 0.453-0.121 0.797-0.218 0.344-0.102 0.723-0.1958 1.008-0.172 0.289 0.023 1.906 0.586 1.906 0.586v0.398z"/>
  <path d="m1.75 14c-0.4141 0-0.75-0.336-0.75-0.75v-0.5c0 0.414 0.3359 0.75 0.75 0.75h12.5c0.414 0 0.75-0.336 0.75-0.75v0.5c0 0.414-0.336 0.75-0.75 0.75z" fill-opacity=".10196"/>
  <path d="m1 12.75v0.5c0 0.414 0.3359 0.75 0.75 0.75h12.5c0.414 0 0.75-0.336 0.75-0.75v-0.5c0 0.414-0.336 0.75-0.75 0.75h-12.5c-0.4141 0-0.75-0.336-0.75-0.75z" fill-opacity=".30196"/>
 </g>
</svg>
